src/assets/icons/months,fancy,november-11.svg

<svg width="48" height="48" viewBox="0 0 48 48" fill="none" xmlns="http://www.w3.org/2000/svg">
<rect opacity="0.2" x="4" y="6" width="40" height="40" rx="4" fill="black"/>
<path d="M16.9474 24.3636H14.4986V31.6818H14.3963L9.37358 24.3636H7.21449V36H9.67472V28.6761H9.75994L14.8224 36H16.9474V24.3636ZM29.6733 30.1818C29.6733 26.375 27.3097 24.2045 24.2244 24.2045C21.1222 24.2045 18.7756 26.375 18.7756 30.1818C18.7756 33.9716 21.1222 36.1591 24.2244 36.1591C27.3097 36.1591 29.6733 33.9886 29.6733 30.1818ZM27.179 30.1818C27.179 32.6477 26.0085 33.983 24.2244 33.983C22.4347 33.983 21.2699 32.6477 21.2699 30.1818C21.2699 27.7159 22.4347 26.3807 24.2244 26.3807C26.0085 26.3807 27.179 27.7159 27.179 30.1818ZM32.9418 24.3636H30.2088L34.2259 36H37.3963L41.4077 24.3636H38.6804L35.8622 33.2045H35.7543L32.9418 24.3636Z" fill="black"/>
<g opacity="0.4">
<path d="M10 4C10 2.89543 10.8954 2 12 2C13.1046 2 14 2.89543 14 4V8C14 9.10457 13.1046 10 12 10C10.8954 10 10 9.10457 10 8V4Z" fill="black"/>
<path d="M34 4C34 2.89543 34.8954 2 36 2C37.1046 2 38 2.89543 38 4V8C38 9.10457 37.1046 10 36 10C34.8954 10 34 9.10457 34 8V4Z" fill="black"/>
</g>
<path fill-rule="evenodd" clip-rule="evenodd" d="M10 6.00869C7.52043 6.04456 6.11466 6.22849 5.17157 7.17157C4 8.34315 4 10.2288 4 14V16H44V14C44 10.2288 44 8.34315 42.8284 7.17157C41.8853 6.22849 40.4796 6.04456 38 6.00869V8C38 9.10457 37.1046 10 36 10C34.8954 10 34 9.10457 34 8V6H14V8C14 9.10457 13.1046 10 12 10C10.8954 10 10 9.10457 10 8V6.00869Z" fill="black"/>
</svg>

<svg xmlns="http://www.w3.org/2000/svg" width="48" height="48" fill="none" viewBox="0 0 48 48">
  <rect width="40" height="40" x="4" y="6" fill="#000" opacity=".2" rx="4"/>
  <path fill="#000" d="M16.947 24.364H14.5v7.318h-.103l-5.022-7.318h-2.16V36h2.46v-7.324h.086L14.822 36h2.125V24.364zm12.726 5.818c0-3.807-2.363-5.977-5.449-5.977-3.102 0-5.448 2.17-5.448 5.977 0 3.79 2.346 5.977 5.448 5.977 3.086 0 5.45-2.17 5.45-5.977zm-2.494 0c0 2.466-1.17 3.801-2.955 3.801-1.79 0-2.954-1.335-2.954-3.801s1.165-3.801 2.954-3.801c1.785 0 2.955 1.335 2.955 3.8zm5.763-5.818h-2.733L34.226 36h3.17l4.012-11.636H38.68l-2.818 8.84h-.108l-2.812-8.84z"/>
  <g opacity=".4">
    <path fill="#000" d="M10 4a2 2 0 114 0v4a2 2 0 11-4 0V4zM34 4a2 2 0 114 0v4a2 2 0 11-4 0V4z"/>
  </g>
  <path fill="#000" fill-rule="evenodd" d="M10 6.009c-2.48.036-3.885.22-4.828 1.163C4 8.343 4 10.229 4 14v2h40v-2c0-3.771 0-5.657-1.172-6.828-.943-.944-2.348-1.127-4.828-1.163V8a2 2 0 11-4 0V6H14v2a2 2 0 11-4 0V6.009z" clip-rule="evenodd"/>
</svg>
